!!!COM: Mozart, Wolfgang Amadeus
!!!OTL: Musikalische Würfelspiele, Kontre-Tänze
!!!SCA: K<sup>6</sup> Anh. C30.01 (K<sup>3</sup> Anh. 294d)
**kern	**kern
*staff2	*staff2
*clefF4	*clefG2
*M2/4	*M2/4
*MM110	*MM110
*>[A,A1,A,A2,B]	*>[A,A1,A,A2,B]
*>norep[A,A2,B]	*>norep[A,A2,B]
*>A	*>A
=145	=145
16C	4G: 4e: 4cc:
16E	.
16G	.
16E	.
4C	16cc
.	16dd
.	16ee
.	16ff
=150	=150
16C	8gg
16E	.
16G	8ee
16E	.
4C	16cc
.	16ee
.	16gg
.	16ee
=112	=112
4G	8ff
.	8dd
4GG	8b
.	8g
=163	=163
4C	16cc
.	16b
.	16cc
.	16dd
4C	8cc
.	8cc
=43	=43
4D	16dd
.	16cc#
.	16dd
.	16ee
4C 4D	16ff#
.	16gg
.	16aa
.	16ff#
=30	=30
4BB 4G	8gg
.	8dd
4BB	(8dd
.	8dd#)
=63	=63
16C	8ee
16BB	.
16C	8aa
16AA	.
16D	8gg
16C#	.
16D	8ff#
16DD	.
=130	=130
*>A1	*>A1
4GG	4g 4b 4gg
16G	4r
16F	.
16E	.
16D	.
=130:|!	=130:|!
*>A2	*>A2
4GG	4g 4b 4gg
16GG	4r
16AA	.
16BB	.
16C#	.
=93||	=93||
*>B	*>B
16D	4dd
16F#	.
16A	.
16F#	.
16C	8aa
16F#	.
16A	8ff#
16C	.
=124	=124
4G	8b
.	8d
4GG	8gg
.	8bb
=26	=26
4C	8ee
.	8cc
4C	8gg
.	8ee
=173	=173
4GG	16b
.	16g
.	16d
.	16B
4r	16G
.	16g
.	16b
.	16dd
=75	=75
16C	4cc
16GG	.
16AA	.
16BB	.
16C	8cc
16GG	.
16AA	8cc
16BB	.
=54	=54
16C	8cc
16E	.
16G	8ee
16E	.
16C	8ee
16E	.
16G	8ee
16E	.
=109	=109
16GG	8dd
16D	.
16BB	4ff
16D	.
16GG	.
16D	.
16BB	8b
16D	.
=146	=146
4C	4cc
4CC	4c
==	==
*-	*-
